X:4
T:Young Scotty
C:Charlie Sherritt (1984?)
S:Flos Headford <flos:madasafish.com> tradtunes 2010-4-7
C:not known
R:jig 32
Z:PJHeadford
M:6/8
L:1/8
Q:3/8=120
K:G
|: G2G GAB | AFD DEF | G2B d2B | def g2f | e2c cde |\ 
d2B GAB |1 c2A B2G | FGA DEF :|2 ABA DEF | G3- G2F |] 
EBe e2f | g3- g2g | fef agf | e3- e2e |\ 
Add d2e | f3- f2g | aba gfe | ded cBA | 
G2G GAB | AFD DEF | G2B d2B | def g2f |\ 
e2c cde | d2B GAB | ABA DEF | G3- G2F |] 

